packages/icons/svg/Product_Promise_ProductSheet_24px.svg

<svg xmlns="http://www.w3.org/2000/svg" viewBox="0 0 24 24"><path d="M18 2H6a1 1 0 00-1 1v18a1 1 0 001 1h12a1 1 0 001-1V3a1 1 0 00-1-1zm-1 2v3H7V4zM7 20V9h10v11z"/><path d="M14.25 13.5h-4.5a.5.5 0 000 1h4.5a.5.5 0 000-1zM14.25 16.5h-4.5a.5.5 0 000 1h4.5a.5.5 0 000-1z"/></svg>

<svg xmlns="http://www.w3.org/2000/svg" viewBox="0 0 24 24"><defs></defs><g id="Calque_5" ><path  d="M18,2H6A1,1,0,0,0,5,3V21a1,1,0,0,0,1,1H18a1,1,0,0,0,1-1V3A1,1,0,0,0,18,2ZM17,4V7H7V4ZM7,20V9H17V20Z"/><path  d="M14.25,13.5H9.75a.5.5,0,0,0,0,1h4.5a.5.5,0,0,0,0-1Z"/><path  d="M14.25,16.5H9.75a.5.5,0,0,0,0,1h4.5a.5.5,0,0,0,0-1Z"/></g></svg>
